Adwaita++/status/16/display-brightness-low.svg

<svg height="16" width="16" xmlns="http://www.w3.org/2000/svg">
  <g fill="#474747">
    <path d="m8 5c-1.66 0-3 1.34-3 3s1.34 3 3 3z"/>
    <path d="m8 .7207-2.1895 2.2793h-2.8105v2.8105l-2.2793 2.1895 2.2793 2.221v2.779h2.8105l2.1895 2.279 2.221-2.279h2.779v-2.779l2.279-2.221-2.279-2v-3h-2.779zm0 3.2793c2.21 0 4 1.79 4 4s-1.79 4-4 4-4-1.79-4-4 1.79-4 4-4z" opacity=".3"/>
  </g>
</svg>

<svg xmlns="http://www.w3.org/2000/svg" width="16" height="16" version="1.1">
 <path style="fill:#474747" d="M 8,5 C 6.34,5 5,6.34 5,8 5,9.66 6.34,11 8,11 Z"/>
 <path style="fill:#474747;opacity:0.3" d="M 8 0.7207 L 5.8105 3 L 3 3 L 3 5.8105 L 0.7207 8 L 3 10.221 L 3 13 L 5.8105 13 L 8 15.279 L 10.221 13 L 13 13 L 13 10.221 L 15.279 8 L 13 6 L 13 3 L 10.221 3 L 8 0.7207 z M 8 4 C 10.21 4 12 5.79 12 8 C 12 10.21 10.21 12 8 12 C 5.79 12 4 10.21 4 8 C 4 5.79 5.79 4 8 4 z"/>
</svg>
